bootstrap/playlist/illust_icon-03.svg

<svg id="레이어_1" data-name="레이어 1" xmlns="http://www.w3.org/2000/svg" viewBox="0 0 180.77 192"><defs><style>.cls-1{fill:#28e575;stroke:#fff;stroke-miterlimit:10;stroke-width:2px;}</style></defs><g id="그룹_979" data-name="그룹 979"><path id="패스_1188" data-name="패스 1188" class="cls-1" d="M61.82,65.25a8.36,8.36,0,1,0-8.36-8.36h0a8.36,8.36,0,0,0,8.36,8.37"/><path id="패스_1189" data-name="패스 1189" class="cls-1" d="M137.08,97c0,10.78-1.88,13.27-4.18,13.27s-4.19-2.49-4.19-13.27S132.9,71.2,132.9,71.2s4.18,15,4.18,25.75m0-40.06A13.94,13.94,0,1,1,123.14,43a13.94,13.94,0,0,1,13.94,13.94h0m-61.33,0A13.94,13.94,0,1,1,61.82,43,13.94,13.94,0,0,1,75.75,56.89h0m83.63,19.88h0A55.75,55.75,0,0,0,103.63,21H81.33A55.76,55.76,0,0,0,25.58,76.77V177.12l55.75-44.6h22.3a55.75,55.75,0,0,0,55.75-55.75h0"/><path id="패스_1190" data-name="패스 1190" class="cls-1" d="M123.14,65.25a8.36,8.36,0,1,0-8.36-8.36h0a8.36,8.36,0,0,0,8.36,8.37"/></g></svg>

<?xml version="1.0" encoding="utf-8"?>
<!-- Generator: Adobe Illustrator 22.0.1, SVG Export Plug-In . SVG Version: 6.00 Build 0)  -->
<svg version="1.1" id="Layer_1" xmlns="http://www.w3.org/2000/svg" xmlns:xlink="http://www.w3.org/1999/xlink" x="0px" y="0px"
	 viewBox="0 0 180.8 192" style="enable-background:new 0 0 180.8 192;" xml:space="preserve">
<style type="text/css">
	.st0{fill:#FFFFFF;}
	.st1{clip-path:url(#SVGID_2_);fill:#28E575;}
	.st2{clip-path:url(#SVGID_2_);fill:none;stroke:#FFFFFF;stroke-width:2;stroke-miterlimit:10;}
</style>
<ellipse class="st0" cx="94.9" cy="73.4" rx="61.1" ry="49.6"/>
<g>
	<defs>
		<rect id="SVGID_1_" width="180.8" height="192"/>
	</defs>
	<clipPath id="SVGID_2_">
		<use xlink:href="#SVGID_1_"  style="overflow:visible;"/>
	</clipPath>
	<path class="st1" d="M61.8,65.3c4.6,0,8.4-3.7,8.4-8.4s-3.7-8.4-8.4-8.4c-4.6,0-8.4,3.7-8.4,8.4v0C53.5,61.5,57.2,65.3,61.8,65.3"
		/>
	<path class="st2" d="M61.8,65.3c4.6,0,8.4-3.7,8.4-8.4s-3.7-8.4-8.4-8.4c-4.6,0-8.4,3.7-8.4,8.4v0C53.5,61.5,57.2,65.3,61.8,65.3"
		/>
	<path class="st1" d="M137.1,97c0,10.8-1.9,13.3-4.2,13.3c-2.3,0-4.2-2.5-4.2-13.3s4.2-25.8,4.2-25.8S137.1,86.2,137.1,97
		 M137.1,56.9c0,7.7-6.2,13.9-13.9,13.9s-13.9-6.2-13.9-13.9S115.4,43,123.1,43S137.1,49.2,137.1,56.9 M75.8,56.9
		c0,7.7-6.2,13.9-13.9,13.9s-13.9-6.2-13.9-13.9S54.1,43,61.8,43S75.8,49.2,75.8,56.9 M159.4,76.8L159.4,76.8
		c0-30.8-25-55.7-55.7-55.7H81.3c-30.8,0-55.7,25-55.7,55.7v100.3l55.7-44.6h22.3C134.4,132.5,159.4,107.6,159.4,76.8"/>
	<path class="st2" d="M137.1,97c0,10.8-1.9,13.3-4.2,13.3c-2.3,0-4.2-2.5-4.2-13.3s4.2-25.8,4.2-25.8S137.1,86.2,137.1,97
		 M137.1,56.9c0,7.7-6.2,13.9-13.9,13.9s-13.9-6.2-13.9-13.9S115.4,43,123.1,43S137.1,49.2,137.1,56.9 M75.8,56.9
		c0,7.7-6.2,13.9-13.9,13.9s-13.9-6.2-13.9-13.9S54.1,43,61.8,43S75.8,49.2,75.8,56.9 M159.4,76.8L159.4,76.8
		c0-30.8-25-55.7-55.7-55.7H81.3c-30.8,0-55.7,25-55.7,55.7v100.3l55.7-44.6h22.3C134.4,132.5,159.4,107.6,159.4,76.8"/>
	<path class="st1" d="M123.1,65.3c4.6,0,8.4-3.7,8.4-8.4s-3.7-8.4-8.4-8.4c-4.6,0-8.4,3.7-8.4,8.4v0
		C114.8,61.5,118.5,65.3,123.1,65.3"/>
	<path class="st2" d="M123.1,65.3c4.6,0,8.4-3.7,8.4-8.4s-3.7-8.4-8.4-8.4c-4.6,0-8.4,3.7-8.4,8.4v0
		C114.8,61.5,118.5,65.3,123.1,65.3"/>
</g>
</svg>
